img/ingridients-icons/walnut.svg

<svg width="32" height="32" viewBox="0 0 32 32" fill="none" xmlns="http://www.w3.org/2000/svg">
<path d="M25.8897 9.77338C25.7746 9.60552 25.5396 9.56715 25.3765 9.68225C25.2086 9.79736 25.1703 10.0324 25.2854 10.1954C26.5707 12.0228 27.2518 14.1235 27.2518 16.277C27.2518 19.0635 26.1055 21.759 24.0192 23.8741C22.446 25.4664 20.4221 26.6559 18.1679 27.3321C17.717 26.9676 17.4436 26.2434 17.3189 25.0492C17.7794 25.476 18.3933 25.7398 19.0647 25.7398C19.8465 25.7398 20.5803 25.3849 21.0647 24.7806C21.1271 24.7854 21.1894 24.7854 21.2518 24.7854C22.6667 24.7854 23.8225 23.6343 23.8225 22.2146C23.8225 21.9988 23.7986 21.7926 23.7458 21.5863C24.4221 21.3082 25.0216 20.8477 25.4628 20.2626C26 19.5528 26.283 18.7038 26.283 17.8118C26.283 16.9245 25.9952 16.0659 25.4676 15.3609C25.9808 14.8813 26.2782 14.205 26.2782 13.4856C26.2782 12.229 25.3861 11.1835 24.187 10.9628C24.1583 9.82134 23.3861 8.84772 22.3022 8.55036C21.9472 7.28417 20.7866 6.39209 19.4532 6.39209C18.7962 6.39209 18.1871 6.60791 17.6978 6.97242C17.9712 6.32494 18.3453 5.77818 18.7962 5.41847C20.9784 6.18106 22.9113 7.43285 24.3933 9.07314C24.5324 9.22662 24.7626 9.23621 24.9161 9.10192C25.0695 8.96763 25.0791 8.73261 24.9448 8.57914C22.7242 6.1283 19.5635 4.4976 16.048 4.0036C16.0144 3.9988 15.9808 3.9988 15.9424 4.0036C12.6523 4.46882 9.63549 5.94604 7.44844 8.16187C5.22302 10.4161 4 13.2986 4 16.277C4 19.2554 5.22302 22.1379 7.44844 24.3921C9.63549 26.6079 12.6523 28.0851 15.9472 28.5504C15.9664 28.5552 15.9808 28.5552 16 28.5552C16.0192 28.5552 16.0336 28.5552 16.0528 28.5504C19.3429 28.0851 22.3597 26.6079 24.5516 24.3921C26.7722 22.1379 28 19.2554 28 16.277C27.9904 13.9748 27.2662 11.7254 25.8897 9.77338ZM19.4532 7.13549C20.518 7.13549 21.4341 7.89329 21.6307 8.93405C21.6595 9.08273 21.7794 9.20264 21.9281 9.22662C22.7722 9.3753 23.3957 10.0803 23.4388 10.9341C22.8537 10.9916 22.307 11.2506 21.8849 11.6727C21.741 11.8165 21.741 12.0516 21.8849 12.1954C21.9568 12.2674 22.0528 12.3058 22.1439 12.3058C22.2398 12.3058 22.3309 12.2674 22.4029 12.1954C22.7482 11.8501 23.2086 11.6583 23.6978 11.6583C23.7074 11.6583 23.717 11.6583 23.7218 11.6535C23.741 11.6583 23.7554 11.6583 23.7746 11.6583C24.7578 11.7014 25.5252 12.5024 25.5252 13.4856C25.5252 13.994 25.3141 14.4688 24.9544 14.8141C24.211 14.1187 23.2326 13.735 22.2014 13.735C21.9952 13.735 21.8321 13.8981 21.8321 14.1043C21.8321 14.3106 21.9952 14.4736 22.2014 14.4736C23.0935 14.4736 23.9329 14.8189 24.5659 15.452C24.5851 15.4712 24.6043 15.4856 24.6235 15.5C24.6379 15.524 24.6523 15.5432 24.6667 15.5624C25.2326 16.1811 25.5396 16.9772 25.5396 17.8165C25.5396 18.5456 25.3094 19.241 24.8681 19.8261C24.5036 20.3058 24.0096 20.6847 23.458 20.9101C22.9976 20.1379 22.1679 19.6535 21.247 19.6535C20.5612 19.6535 19.9137 19.9221 19.4293 20.4065C19.2854 20.5504 19.2854 20.7854 19.4293 20.9293C19.5731 21.0731 19.8082 21.0731 19.952 20.9293C20.2974 20.5839 20.7578 20.3921 21.247 20.3921C21.9856 20.3921 22.6475 20.8285 22.9353 21.5096C23.0312 21.735 23.0791 21.9748 23.0791 22.2194C23.0791 23.1499 22.3837 23.9173 21.482 24.0324C21.5779 23.759 21.6307 23.4664 21.6307 23.1691C21.6307 22.9628 21.4676 22.7998 21.2614 22.7998C21.0552 22.7998 20.8921 22.9628 20.8921 23.1691C20.8921 23.5336 20.7866 23.8837 20.5851 24.1811C20.2446 24.6894 19.6739 24.9964 19.0647 24.9964C18.0576 24.9964 17.2326 24.1763 17.2326 23.1643C17.2326 22.6559 17.4388 22.1811 17.8082 21.8309C17.9472 21.7014 17.9616 21.4856 17.8465 21.3369C17.4436 20.8237 17.2326 20.205 17.2326 19.5528C17.2326 18.6511 17.6403 17.8165 18.3501 17.2602C18.3549 17.2554 18.3549 17.2554 18.3597 17.2506C18.8729 16.8525 19.4868 16.6415 20.1391 16.6415C20.3453 16.6415 20.5084 16.4784 20.5084 16.2722C20.5084 16.0659 20.3453 15.9029 20.1391 15.9029C19.4245 15.9029 18.7482 16.1043 18.1583 16.488C17.5731 15.8597 17.2374 15.0204 17.2374 14.1475C17.2374 13.2362 17.5923 12.3825 18.2302 11.735C18.2302 11.735 18.2302 11.7302 18.235 11.7302C18.8825 11.0779 19.7506 10.7134 20.6715 10.7134C20.8777 10.7134 21.0408 10.5504 21.0408 10.3441C21.0408 10.1379 20.8777 9.97482 20.6715 9.97482C19.6595 9.97482 18.7098 10.3297 17.952 10.982C17.5012 10.5647 17.2374 9.97482 17.2374 9.35132C17.2374 8.13309 18.2302 7.13549 19.4532 7.13549ZM4.73861 16.277C4.73861 13.4904 5.88489 10.795 7.97122 8.67986C9.39568 7.23621 11.1942 6.1235 13.1942 5.42326C13.6451 5.78297 14.024 6.32494 14.2926 6.97242C13.8034 6.61271 13.1942 6.39688 12.5372 6.39688C11.2038 6.39688 10.0432 7.28897 9.68825 8.55516C8.60432 8.85252 7.83213 9.82614 7.80336 10.9676C6.60432 11.193 5.71223 12.2386 5.71223 13.4904C5.71223 14.205 6.00959 14.8813 6.52278 15.3657C5.9952 16.0707 5.70743 16.9245 5.70743 17.8165C5.70743 17.9029 5.71223 17.994 5.71703 18.0803C5.73141 18.2818 5.90887 18.44 6.11031 18.4257C6.31175 18.4113 6.47002 18.2386 6.45564 18.0324C6.45084 17.9604 6.45084 17.8885 6.45084 17.8165C6.45084 16.982 6.76259 16.1811 7.32374 15.5624C7.34293 15.5432 7.35731 15.524 7.36691 15.5C7.38609 15.4856 7.40528 15.4712 7.42446 15.452C8.05755 14.8189 8.89688 14.4736 9.78897 14.4736C9.9952 14.4736 10.1583 14.3106 10.1583 14.1043C10.1583 13.8981 9.9952 13.735 9.78897 13.735C8.753 13.735 7.77938 14.1187 7.02158 14.8189C6.66187 14.4784 6.45084 13.9988 6.45084 13.4904C6.45084 12.5072 7.21823 11.7062 8.20144 11.6631C8.22062 11.6631 8.23501 11.6583 8.2542 11.6583C8.26379 11.6631 8.27338 11.6631 8.27818 11.6631C8.76739 11.6631 9.22782 11.8549 9.57314 12.2002C9.64508 12.2722 9.74101 12.3106 9.83213 12.3106C9.92806 12.3106 10.0192 12.2722 10.0911 12.2002C10.235 12.0564 10.235 11.8213 10.0911 11.6775C9.66906 11.2554 9.1223 10.9964 8.53717 10.9388C8.58034 10.0899 9.20384 9.3801 10.048 9.23141C10.2014 9.20743 10.3165 9.08753 10.3453 8.93885C10.5468 7.89808 11.4628 7.14029 12.5228 7.14029C13.7458 7.14029 14.7434 8.13789 14.7434 9.36091C14.7434 9.98441 14.4796 10.5695 14.0288 10.9916C13.271 10.3393 12.3213 9.98441 11.3094 9.98441C11.1031 9.98441 10.94 10.1475 10.94 10.3537C10.94 10.56 11.1031 10.723 11.3094 10.723C12.2302 10.723 13.0983 11.0827 13.7458 11.7398C13.7458 11.7398 13.7458 11.7446 13.7506 11.7446C14.3933 12.3921 14.7434 13.2506 14.7434 14.1571C14.7434 15.03 14.4077 15.8693 13.813 16.5024C13.223 16.1187 12.5468 15.9173 11.8321 15.9173C11.6259 15.9173 11.4628 16.0803 11.4628 16.2866C11.4628 16.4928 11.6259 16.6559 11.8321 16.6559C12.4844 16.6559 13.0983 16.8669 13.6115 17.265C13.6163 17.2698 13.6163 17.2698 13.6211 17.2746C14.3309 17.8309 14.7386 18.6655 14.7386 19.5671C14.7386 20.2194 14.5276 20.8381 14.1247 21.3513C14.0096 21.5 14.024 21.7158 14.1631 21.8453C14.5324 22.1954 14.7386 22.6703 14.7386 23.1787C14.7386 24.1859 13.9185 25.0108 12.9065 25.0108C12.2926 25.0108 11.7266 24.7038 11.3861 24.1954C11.1847 23.8933 11.0791 23.5432 11.0791 23.1835C11.0791 22.9772 10.9161 22.8141 10.7098 22.8141C10.5036 22.8141 10.3405 22.9772 10.3405 23.1835C10.3405 23.4808 10.3933 23.7734 10.4892 24.0468C9.59233 23.9317 8.89209 23.1643 8.89209 22.2338C8.89209 21.9892 8.94005 21.7494 9.03597 21.524C9.32374 20.8429 9.98561 20.4065 10.7242 20.4065C11.2134 20.4065 11.6739 20.5983 12.0192 20.9436C12.1631 21.0875 12.3981 21.0875 12.542 20.9436C12.6859 20.7998 12.6859 20.5647 12.542 20.4209C12.0576 19.9365 11.4101 19.6679 10.7242 19.6679C9.80815 19.6679 8.97362 20.1523 8.51319 20.9245C7.7554 20.6127 7.1271 20.0324 6.76259 19.2842C6.67146 19.1019 6.45084 19.0252 6.26858 19.1115C6.08633 19.2026 6.00959 19.4233 6.09592 19.6055C6.53717 20.512 7.29976 21.2266 8.22542 21.6055C8.17266 21.8118 8.14868 22.018 8.14868 22.2338C8.14868 23.6487 9.29976 24.8046 10.7194 24.8046C10.7818 24.8046 10.8441 24.8046 10.9065 24.7998C11.3909 25.4041 12.1247 25.759 12.9065 25.759C13.5827 25.759 14.1966 25.4952 14.6523 25.0683C14.5276 26.2626 14.2542 26.982 13.8034 27.3513C11.5492 26.6751 9.52518 25.4856 7.95204 23.8933C5.88969 21.759 4.73861 19.0635 4.73861 16.277ZM15.9952 27.8118C15.5348 27.7446 15.0839 27.6583 14.6379 27.5528C15.2422 26.7758 15.4964 25.4233 15.4964 23.1691C15.4964 22.5743 15.2854 21.994 14.9113 21.5384C15.295 20.9484 15.4964 20.2674 15.4964 19.5576C15.4964 18.5695 15.1031 17.6391 14.4077 16.958C15.1031 16.1954 15.4964 15.1882 15.4964 14.1475C15.4964 13.1787 15.1655 12.2578 14.5612 11.5144C15.1511 10.958 15.4964 10.1763 15.4964 9.35611C15.4964 8.42566 15.3141 7.5048 14.9736 6.68465C14.7194 6.08034 14.3933 5.56715 14.0096 5.16906C14.6571 4.98201 15.3237 4.84293 16 4.74221C16.6811 4.84293 17.3429 4.98201 17.9904 5.16906C17.6067 5.56715 17.2758 6.08513 17.0264 6.68465C16.6859 7.5048 16.5036 8.42566 16.5036 9.35611C16.5036 10.1763 16.8489 10.958 17.4388 11.5144C16.8345 12.2578 16.5036 13.1787 16.5036 14.1475C16.5036 15.1882 16.8969 16.1954 17.5923 16.958C16.8969 17.6391 16.5036 18.5695 16.5036 19.5576C16.5036 20.2722 16.705 20.9484 17.0887 21.5384C16.7146 21.994 16.5036 22.5743 16.5036 23.1691C16.5036 25.4185 16.7578 26.771 17.3621 27.5528C16.9065 27.6583 16.4556 27.7446 15.9952 27.8118Z" fill="black"/>
</svg>

<svg width="32" height="32" fill="none" xmlns="http://www.w3.org/2000/svg"><path d="M25.89 9.773a.37.37 0 00-.605.422c1.286 1.828 1.967 3.928 1.967 6.082 0 2.787-1.146 5.482-3.233 7.597-1.573 1.592-3.597 2.782-5.851 3.458-.451-.364-.724-1.089-.85-2.283a2.561 2.561 0 003.746-.269c.063.005.125.005.188.005a2.574 2.574 0 002.494-3.199 4.124 4.124 0 001.717-1.323c.537-.71.82-1.56.82-2.451 0-.888-.288-1.746-.815-2.451.513-.48.81-1.156.81-1.875a2.556 2.556 0 00-2.091-2.523 2.565 2.565 0 00-1.885-2.413 2.961 2.961 0 00-2.849-2.158c-.657 0-1.266.216-1.755.58.273-.647.647-1.194 1.098-1.554 2.182.763 4.115 2.015 5.597 3.655a.371.371 0 00.552-.494c-2.22-2.45-5.381-4.081-8.897-4.575a.389.389 0 00-.106 0c-3.29.465-6.307 1.942-8.494 4.158C5.223 10.416 4 13.299 4 16.277c0 2.978 1.223 5.86 3.448 8.115 2.187 2.216 5.204 3.693 8.5 4.158.018.005.033.005.052.005.02 0 .034 0 .053-.005 3.29-.465 6.307-1.942 8.499-4.158C26.772 22.138 28 19.255 28 16.277c-.01-2.302-.734-4.552-2.11-6.504zm-6.437-2.638c1.065 0 1.981.758 2.178 1.799a.368.368 0 00.297.293 1.824 1.824 0 011.51 1.707 2.546 2.546 0 00-1.553.739.37.37 0 00.259.633.364.364 0 00.259-.11 1.821 1.821 0 011.295-.538c.01 0 .019 0 .024-.005.019.005.033.005.053.005.983.043 1.75.844 1.75 1.828 0 .508-.21.983-.57 1.328a4.014 4.014 0 00-2.754-1.079.366.366 0 00-.369.37c0 .206.163.369.37.369a3.32 3.32 0 012.364.978c.02.02.038.034.058.048a.517.517 0 00.043.062 3.32 3.32 0 01.873 2.255 3.31 3.31 0 01-.672 2.01 3.4 3.4 0 01-1.41 1.083 2.567 2.567 0 00-2.211-1.256c-.686 0-1.333.268-1.818.753a.37.37 0 00.523.522 1.821 1.821 0 011.295-.537 1.826 1.826 0 011.832 1.827c0 .93-.695 1.698-1.597 1.813a2.61 2.61 0 00.149-.863.366.366 0 00-.37-.37.366.366 0 00-.369.37 1.833 1.833 0 01-1.827 1.827 1.835 1.835 0 01-1.832-1.832c0-.508.206-.983.575-1.333a.369.369 0 00.038-.494 2.864 2.864 0 01-.613-1.784c0-.902.407-1.736 1.117-2.293l.01-.01a2.875 2.875 0 011.78-.608.367.367 0 00.368-.37.366.366 0 00-.369-.37c-.715 0-1.39.202-1.98.586a3.444 3.444 0 01-.922-2.34c0-.912.355-1.765.993-2.413 0 0 0-.005.005-.005a3.418 3.418 0 012.437-1.017.366.366 0 00.369-.369.366.366 0 00-.37-.37 4.136 4.136 0 00-2.719 1.008 2.225 2.225 0 01-.715-1.63 2.22 2.22 0 012.216-2.217zM4.74 16.277c0-2.787 1.146-5.482 3.232-7.597 1.425-1.444 3.223-2.556 5.223-3.257.451.36.83.902 1.099 1.55a2.96 2.96 0 00-4.605 1.582 2.566 2.566 0 00-1.885 2.413 2.564 2.564 0 00-2.09 2.522c0 .715.297 1.391.81 1.876a4.078 4.078 0 00-.806 2.714c.014.202.192.36.393.346a.37.37 0 00.346-.394c-.005-.072-.005-.143-.005-.215 0-.835.312-1.636.873-2.255a.183.183 0 00.043-.062.415.415 0 00.057-.048 3.32 3.32 0 012.365-.978c.206 0 .37-.163.37-.37a.366.366 0 00-.37-.369 4.05 4.05 0 00-2.767 1.084 1.83 1.83 0 011.18-3.156c.019 0 .033-.005.052-.005.01.005.02.005.024.005.49 0 .95.192 1.295.537.072.072.168.11.26.11a.37.37 0 00.259-.633 2.547 2.547 0 00-1.555-.738 1.828 1.828 0 011.511-1.708.362.362 0 00.297-.292 2.224 2.224 0 012.178-1.799c1.223 0 2.22.998 2.22 2.22 0 .624-.263 1.21-.714 1.632a4.136 4.136 0 00-2.72-1.008.366.366 0 00-.369.37c0 .206.163.369.37.369a3.398 3.398 0 012.44 1.022c.643.647.993 1.506.993 2.412a3.43 3.43 0 01-.93 2.345 3.602 3.602 0 00-1.98-.585.366.366 0 00-.37.37c0 .206.163.369.37.369.651 0 1.265.21 1.778.609l.01.01a2.895 2.895 0 011.118 2.292c0 .652-.211 1.271-.614 1.784a.369.369 0 00.038.494c.37.35.576.825.576 1.334 0 1.007-.82 1.832-1.833 1.832a1.827 1.827 0 01-1.827-1.828.366.366 0 00-.37-.369.366.366 0 00-.368.37c0 .297.052.59.148.863a1.833 1.833 0 01-1.597-1.813 1.826 1.826 0 011.832-1.827c.49 0 .95.191 1.295.537a.37.37 0 00.523-.523 2.573 2.573 0 00-4.029.504 3.376 3.376 0 01-1.75-1.64.375.375 0 00-.494-.174.375.375 0 00-.173.494 4.106 4.106 0 002.13 2 2.574 2.574 0 002.494 3.2c.062 0 .124 0 .187-.005a2.561 2.561 0 003.745.268c-.124 1.195-.398 1.914-.849 2.283-2.254-.676-4.278-1.865-5.851-3.458-2.062-2.134-3.213-4.83-3.213-7.616zm11.256 11.535c-.46-.067-.911-.154-1.357-.26.604-.776.858-2.129.858-4.383 0-.595-.21-1.175-.585-1.63.384-.59.585-1.272.585-1.981 0-.988-.393-1.919-1.088-2.6a4.184 4.184 0 001.088-2.81c0-.97-.33-1.89-.935-2.634.59-.556.935-1.338.935-2.158 0-.93-.182-1.851-.522-2.671-.255-.605-.58-1.118-.964-1.516A15.288 15.288 0 0116 4.742c.681.1 1.343.24 1.99.427a4.89 4.89 0 00-.964 1.516 7.017 7.017 0 00-.522 2.671c0 .82.345 1.602.935 2.158a4.157 4.157 0 00-.935 2.634c0 1.04.393 2.047 1.088 2.81a3.626 3.626 0 00-1.088 2.6c0 .714.201 1.39.585 1.98a2.582 2.582 0 00-.585 1.631c0 2.25.254 3.602.858 4.384-.455.105-.906.192-1.367.259z" fill="#000"/></svg>
